public/assets/images/logoImage.svg

<svg width="417" height="446" xmlns="http://www.w3.org/2000/svg" overflow="hidden"><defs><clipPath id="a"><path d="M432 42h417v446H432z"/></clipPath></defs><g clip-path="url(#a)" transform="translate(-432 -42)" stroke-linecap="round" stroke-linejoin="round" stroke-miterlimit="10" fill-rule="evenodd"><path d="M664.357 478.641c-14.941-12.697-12.712-35.732-12.23-55.382.241-8.404-2.169-19.287-10.483-20.315-9.459-1.149-13.796 11.608-13.555 21.222.421 18.682 3.675 40.387-9.821 53.326-10.001 9.613-25.424 10.097-39.341 9.916-22.894-.242-45.788-.484-68.622-.665-17.653-.182-37.956-1.693-48.379-15.962-12.23-16.808-3.675-42.02-14.037-59.977-3.916-6.832-10.363-12.153-13.134-19.529-4.639-12.213 4.157-27.57 16.99-29.746-9.881-28.175-13.496-58.647-10.483-88.394 1.506-15.296 4.819-30.351 8.073-45.345 2.169-10.158 4.398-20.436 8.736-29.868 4.578-9.915-.302-21.282-3.314-31.802-4.458-15.478-4.579-32.165-.422-47.704 1.747-6.65 7.411-14.571 13.616-11.729 10.965-24.97 30.847-45.89 55.187-58.103 11.266-5.683 27.292-8.464 34.702 1.814 17.412 24.245 46.15 37.788 74.888 45.527 28.738 7.799 58.681 10.822 87.117 19.589 28.497 8.767 56.512 24.487 71.333 50.424 4.157 7.256 7.23 15.176 12.592 21.524 4.277 5.079 9.82 8.828 14.58 13.423 18.194 17.715 22.713 45.164 22.653 70.618-.06 30.049-5.061 60.098-14.821 88.575 12.471 7.134 25.665 20.617 19.942 33.857-2.531 5.744-8.013 9.493-11.809 14.511-12.953 17.171-2.47 44.257-14.821 61.972-10.061 14.39-30.364 16.022-47.956 16.204-22.955.302-45.909.544-68.923.846-13.375.181-28.076-.121-38.258-8.827m172.73-211.189c-.422-22.733-4.278-47.099-20.183-63.303-6.386-6.529-14.52-11.427-20.063-18.742-4.819-6.288-7.41-13.967-11.145-20.98-12.773-23.519-38.318-37.425-64.043-44.681-25.666-7.255-52.596-9.19-78.442-16.143-35.486-9.431-68.381-28.356-94.528-54.233-2.953-2.962-7.772-2.297-11.809-1.149-32.594 9.372-59.404 36.881-68.019 69.833-1.928-1.573-2.772-4.475-1.868-6.833-2.229-2.781-6.326 1.089-7.471 4.475-6.024 17.231-6.085 36.457-.12 53.749 2.952 8.706 7.41 18.501 3.012 26.603-2.59 4.776-3.856 10.157-5.121 15.417-10.663 44.741-20.062 92.263-6.326 136.158.844 2.72 1.808 5.502 3.615 7.739 7.049 8.948 22.472 4.292 28.678-5.321 6.266-9.553 6.627-21.584 9.157-32.709 7.11-31.44 32.896-56.712 63.14-67.474 10.061-3.507 21.809-6.711 26.268-16.385 28.316 3.325 56.873 1.451 85.31 2.721 28.437 1.269 57.657 5.925 81.936 20.859 24.28 14.933 42.776 41.838 41.089 70.376-.422 7.074-1.868 14.692 1.627 20.798 4.398 7.679 14.459 9.493 23.255 10.46 2.29.242 4.76.484 6.808-.605 2.591-1.451 3.675-4.595 4.519-7.497 7.531-26.965 11.206-55.08 10.724-83.133m-284.729-12.395c-31.57 11.851-55.488 42.081-59.826 75.576-1.024 7.981-1.024 16.204-3.133 23.943 100.493-4.112 201.166-4.233 301.719-.242-7.531-9.553-4.699-23.217-5.181-35.37-1.145-27.691-22.171-51.512-47.053-63.544-24.883-12.032-53.199-14.329-80.792-15.538-20.725-.907-41.511-1.27-62.236-1.693-5.241-.061-11.025.06-14.821 3.627-7.711 7.256-18.737 9.553-28.677 13.241m71.875 167.9c.06-9.976 3.916-22.129 13.736-23.701 7.772-1.27 14.941 5.562 17.231 13.18 2.35 7.558 1.145 15.66.482 23.58-1.325 16.143 1.446 35.249 15.544 43.109 7.169 3.99 15.784 4.05 23.978 4.05 26.449-.06 52.958-.06 79.406-.121 8.073 0 16.327-.06 23.918-2.66 12.532-4.293 22.292-15.841 24.461-28.961 2.169-12.999-2.47-27.449 3.916-38.997 4.217-7.557 12.652-12.575 15.363-20.798 3.133-9.674-3.253-20.436-12.05-25.635-8.735-5.14-19.279-5.986-29.46-6.651-79.166-4.958-158.632-4.172-237.978-3.386-33.979.363-68.2.726-101.577 7.255-10.603 2.117-23.135 6.953-24.641 17.715-1.506 11.186 10.062 19.166 15.665 28.961 10.121 17.715.662 42.685 12.892 59.01 9.76 12.999 28.437 14.208 44.644 14.208 25.484 0 50.969 0 76.393.06 9.037 0 18.737-.181 26.208-5.32 8.073-5.502 11.688-15.72 12.531-25.515.784-9.794-.783-19.589-.662-29.383" stroke="#00B0F0" fill="#00B0F0"/><path d="M561.076 445.272c-10.836 1.505-22.273-4.573-27.089-14.382-4.756-9.81-2.529-22.567 5.297-30.15 7.826-7.643 20.648-9.448 30.28-4.393 9.692 5.055 15.411 16.67 13.605 27.441-.723 4.394-4.575 7.643-8.669 9.328-.782 4.574-3.973 8.726-8.187 10.652-1.625.782-3.431 1.203-5.237 1.504m-19.986-10.23a22.385 22.385 0 0010.414 6.258 22.7 22.7 0 007.284.662c3.311-.18 6.743-1.143 9.151-3.55 2.347-2.347 3.31-6.319 1.504-9.147 3.372.963 7.164-1.083 8.97-4.092 1.806-3.009 1.926-6.801 1.204-10.291-1.926-9.027-9.933-16.489-19.083-17.692-9.21-1.264-18.902 3.791-23.116 12.035-4.214 8.245-2.709 19.077 3.672 25.817m196.461 8.542c-10.147 4.263-22.815 1.201-29.96-7.084-7.145-8.344-8.106-21.372-2.342-30.677 5.764-9.365 17.832-14.288 28.459-11.586 10.688 2.641 19.033 12.667 19.754 23.593.18 3.242-.24 6.664-2.041 9.305-1.862 2.762-5.044 4.563-6.485 7.564-.72 1.381-.961 3.002-1.681 4.323-1.201 2.221-3.422 3.602-5.704 4.562m-2.161-3.061c1.561-.541 3.062-1.381 4.142-2.642 2.102-2.401 1.862-6.483-.54-8.645 3.182 1.261 6.965-.42 8.886-3.181 1.921-2.822 2.282-6.424 1.801-9.786-1.381-9.125-8.886-17.05-17.952-18.79-9.066-1.801-19.033 2.701-23.716 10.686-4.683 7.984-3.722 18.85 2.221 25.874 6.005 7.084 16.572 9.785 25.158 6.484" stroke="#FFF" fill="#FFF"/><path d="M600.643 384.778c2.709 4.11 3.432 9.248 3.913 14.204 1.445 14.566 1.205 29.314-.541 43.82-.723 5.863-1.927 12.148-6.142 16.258-5.177 5.077-13.185 5.38-20.41 5.38-23.541 0-47.082 0-70.623.06-5.84 0-11.861-.06-17.34-2.115-5.479-2.055-10.356-6.709-11.138-12.512-1.987-16.258-2.409-32.698-1.144-49.018.481-5.923 1.264-12.209 4.756-16.984 6.382-8.643 18.725-9.428 29.381-9.368 19.809 0 39.677 0 59.485.061 10.958 0 23.842.967 29.803 10.214m-120.294 20.611l.722 35.237c.06 5.621.422 11.786 4.395 15.775 4.034 4.05 10.416 4.352 16.136 4.352 25.829.06 51.658.06 77.487.121 4.937 0 10.235-.061 14.329-2.841 6.864-4.533 7.586-14.143 7.707-22.363.06-10.336.18-20.671.24-31.007.061-7.374-.18-15.594-5.539-20.671-4.455-4.17-11.138-4.835-17.279-5.137-24.384-1.33-48.889-1.33-73.333-.061-7.345.423-15.533 1.27-20.35 6.891-4.515 5.198-4.636 12.813-4.515 19.704m325.027 1.49c.301 10.307.06 20.614-.781 30.92-.781 9.403-3.004 20.252-11.417 24.531-4.086 2.05-8.833 2.11-13.4 2.11-25.358 0-50.716.06-76.074.06-6.85 0-14.422-.301-19.349-5.123-3.425-3.375-4.807-8.318-5.769-13.079a150.84 150.84 0 01-2.884-38.213c.661-11.814 3.966-25.315 14.542-30.438 4.627-2.23 9.855-2.471 14.962-2.652 23.435-.723 46.931-.663 70.366.241 7.21.241 14.902.784 20.55 5.244 7.572 5.967 8.954 16.756 9.254 26.399m-120.66-20.312c-3.245 3.978-3.966 9.403-4.387 14.526a193.19 193.19 0 001.442 43.276c.661 4.4 1.623 9.101 4.867 12.235 3.966 3.858 10.095 4.099 15.684 4.159 24.817 0 49.634.06 74.451.121 6.73 0 14.242-.241 18.989-5.003 4.326-4.339 4.987-11.03 5.288-17.178.661-12.958.601-25.977-.12-38.936-.241-4.52-.661-9.342-3.305-13.019-4.086-5.665-11.958-6.811-18.929-7.293-24.697-1.808-49.514-1.808-74.211-.06-7.211.482-15.203 1.567-19.769 7.172" stroke="#00B0F0" fill="#00B0F0"/></g></svg>

<svg width="417" height="446" xmlns="http://www.w3.org/2000/svg" xmlns:xlink="http://www.w3.org/1999/xlink" overflow="hidden"><defs><clipPath id="clip0"><rect x="432" y="42" width="417" height="446"/></clipPath></defs><g clip-path="url(#clip0)" transform="translate(-432 -42)"><path d="M664.357 478.641C649.416 465.944 651.645 442.909 652.127 423.259 652.368 414.855 649.958 403.972 641.644 402.944 632.185 401.795 627.848 414.552 628.089 424.166 628.51 442.848 631.764 464.553 618.268 477.492 608.267 487.105 592.844 487.589 578.927 487.408 556.033 487.166 533.139 486.924 510.305 486.743 492.652 486.561 472.349 485.05 461.926 470.781 449.696 453.973 458.251 428.761 447.889 410.804 443.973 403.972 437.526 398.651 434.755 391.275 430.116 379.062 438.912 363.705 451.745 361.529 441.864 333.354 438.249 302.882 441.262 273.135 442.768 257.839 446.081 242.784 449.335 227.79 451.504 217.632 453.733 207.354 458.071 197.922 462.649 188.007 457.769 176.64 454.757 166.12 450.299 150.642 450.178 133.955 454.335 118.416 456.082 111.766 461.746 103.845 467.951 106.687 478.916 81.7167 498.798 60.7973 523.138 48.5842 534.404 42.9009 550.43 40.1198 557.84 50.398 575.252 74.6428 603.99 88.1859 632.728 95.9249 661.466 103.724 691.409 106.747 719.845 115.514 748.342 124.281 776.357 140.001 791.178 165.938 795.335 173.194 798.408 181.114 803.77 187.462 808.047 192.541 813.59 196.29 818.35 200.885 836.544 218.6 841.063 246.049 841.003 271.503 840.943 301.552 835.942 331.601 826.182 360.078 838.653 367.212 851.847 380.695 846.124 393.935 843.593 399.679 838.111 403.428 834.315 408.446 821.362 425.617 831.845 452.703 819.494 470.418 809.433 484.808 789.13 486.44 771.538 486.622 748.583 486.924 725.629 487.166 702.615 487.468 689.24 487.649 674.539 487.347 664.357 478.641M837.087 267.452C836.665 244.719 832.809 220.353 816.904 204.149 810.518 197.62 802.384 192.722 796.841 185.407 792.022 179.119 789.431 171.44 785.696 164.427 772.923 140.908 747.378 127.002 721.653 119.746 695.987 112.491 669.057 110.556 643.211 103.603 607.725 94.1715 574.83 75.2473 548.683 49.3702 545.73 46.4076 540.911 47.0727 536.874 48.2214 504.28 57.5928 477.47 85.1024 468.855 118.054 466.927 116.481 466.083 113.579 466.987 111.221 464.758 108.44 460.661 112.31 459.516 115.696 453.492 132.927 453.431 152.153 459.396 169.445 462.348 178.151 466.806 187.946 462.408 196.048 459.818 200.824 458.552 206.205 457.287 211.465 446.624 256.206 437.225 303.728 450.961 347.623 451.805 350.343 452.769 353.125 454.576 355.362 461.625 364.31 477.048 359.654 483.254 350.041 489.52 340.488 489.881 328.457 492.411 317.332 499.521 285.892 525.307 260.62 555.551 249.858 565.612 246.351 577.36 243.147 581.819 233.473 610.135 236.798 638.692 234.924 667.129 236.194 695.566 237.463 724.786 242.119 749.065 257.053 773.345 271.986 791.841 298.891 790.154 327.429 789.732 334.503 788.286 342.121 791.781 348.227 796.179 355.906 806.24 357.72 815.036 358.687 817.326 358.929 819.796 359.171 821.844 358.082 824.435 356.631 825.519 353.487 826.363 350.585 833.894 323.62 837.569 295.505 837.087 267.452M552.358 255.057C520.788 266.908 496.87 297.138 492.532 330.633 491.508 338.614 491.508 346.837 489.399 354.576 589.892 350.464 690.565 350.343 791.118 354.334 783.587 344.781 786.419 331.117 785.937 318.964 784.792 291.273 763.766 267.452 738.884 255.42 714.001 243.388 685.685 241.091 658.092 239.882 637.367 238.975 616.581 238.612 595.856 238.189 590.615 238.128 584.831 238.249 581.035 241.816 573.324 249.072 562.298 251.369 552.358 255.057M624.233 422.957C624.293 412.981 628.149 400.828 637.969 399.256 645.741 397.986 652.91 404.818 655.2 412.436 657.55 419.994 656.345 428.096 655.682 436.016 654.357 452.159 657.128 471.265 671.226 479.125 678.395 483.115 687.01 483.175 695.204 483.175 721.653 483.115 748.162 483.115 774.61 483.054 782.683 483.054 790.937 482.994 798.528 480.394 811.06 476.101 820.82 464.553 822.989 451.433 825.158 438.434 820.519 423.984 826.905 412.436 831.122 404.879 839.557 399.861 842.268 391.638 845.401 381.964 839.015 371.202 830.218 366.003 821.483 360.863 810.939 360.017 800.758 359.352 721.592 354.394 642.126 355.18 562.78 355.966 528.801 356.329 494.58 356.692 461.203 363.221 450.6 365.338 438.068 370.174 436.562 380.936 435.056 392.122 446.624 400.102 452.227 409.897 462.348 427.612 452.889 452.582 465.119 468.907 474.879 481.906 493.556 483.115 509.763 483.115 535.247 483.115 560.732 483.115 586.156 483.175 595.193 483.175 604.893 482.994 612.364 477.855 620.437 472.353 624.052 462.135 624.895 452.34 625.679 442.546 624.112 432.751 624.233 422.957" stroke="#00B0F0" stroke-linecap="round" stroke-linejoin="round" stroke-miterlimit="10" fill="#00B0F0" fill-rule="evenodd"/><path d="M561.076 445.272C550.24 446.777 538.803 440.699 533.987 430.89 529.231 421.08 531.458 408.323 539.284 400.74 547.11 393.097 559.932 391.292 569.564 396.347 579.256 401.402 584.975 413.017 583.169 423.788 582.446 428.182 578.594 431.431 574.5 433.116 573.718 437.69 570.527 441.842 566.313 443.768 564.688 444.55 562.882 444.971 561.076 445.272M541.09 435.042C543.919 438.051 547.531 440.217 551.504 441.3 553.852 441.902 556.32 442.143 558.788 441.962 562.099 441.782 565.531 440.819 567.939 438.412 570.286 436.065 571.249 432.093 569.443 429.265 572.815 430.228 576.607 428.182 578.413 425.173 580.219 422.164 580.339 418.372 579.617 414.882 577.691 405.855 569.684 398.393 560.534 397.19 551.324 395.926 541.632 400.981 537.418 409.225 533.204 417.47 534.709 428.302 541.09 435.042" stroke="#FFFFFF" stroke-linecap="round" stroke-linejoin="round" stroke-miterlimit="10" fill="#FFFFFF" fill-rule="evenodd"/><path d="M737.551 443.584C727.404 447.847 714.736 444.785 707.591 436.5 700.446 428.156 699.485 415.128 705.249 405.823 711.013 396.458 723.081 391.535 733.708 394.237 744.396 396.878 752.741 406.904 753.462 417.83 753.642 421.072 753.222 424.494 751.421 427.135 749.559 429.897 746.377 431.698 744.936 434.699 744.216 436.08 743.975 437.701 743.255 439.022 742.054 441.243 739.833 442.624 737.551 443.584M735.39 440.523C736.951 439.982 738.452 439.142 739.532 437.881 741.634 435.48 741.394 431.398 738.992 429.236 742.174 430.497 745.957 428.816 747.878 426.055 749.799 423.233 750.16 419.631 749.679 416.269 748.298 407.144 740.793 399.219 731.727 397.479 722.661 395.678 712.694 400.18 708.011 408.165 703.328 416.149 704.289 427.015 710.232 434.039 716.237 441.123 726.804 443.824 735.39 440.523" stroke="#FFFFFF" stroke-linecap="round" stroke-linejoin="round" stroke-miterlimit="10" fill="#FFFFFF" fill-rule="evenodd"/><path d="M600.643 384.778C603.352 388.888 604.075 394.026 604.556 398.982 606.001 413.548 605.761 428.296 604.015 442.802 603.292 448.665 602.088 454.95 597.873 459.06 592.696 464.137 584.688 464.44 577.463 464.44 553.922 464.44 530.381 464.44 506.84 464.5 501 464.5 494.979 464.44 489.5 462.385 484.021 460.33 479.144 455.676 478.362 449.873 476.375 433.615 475.953 417.175 477.218 400.855 477.699 394.932 478.482 388.646 481.974 383.871 488.356 375.228 500.699 374.443 511.355 374.503 531.164 374.503 551.032 374.503 570.84 374.564 581.798 374.564 594.682 375.531 600.643 384.778M480.349 405.389C480.589 417.114 480.83 428.9 481.071 440.626 481.131 446.247 481.493 452.412 485.466 456.401 489.5 460.451 495.882 460.753 501.602 460.753 527.431 460.813 553.26 460.813 579.089 460.874 584.026 460.874 589.324 460.813 593.418 458.033 600.282 453.5 601.004 443.89 601.125 435.67 601.185 425.334 601.305 414.999 601.365 404.663 601.426 397.289 601.185 389.069 595.826 383.992 591.371 379.822 584.688 379.157 578.547 378.855 554.163 377.525 529.658 377.525 505.214 378.794 497.869 379.217 489.681 380.064 484.864 385.685 480.349 390.883 480.228 398.498 480.349 405.389" stroke="#00B0F0" stroke-linecap="round" stroke-linejoin="round" stroke-miterlimit="10" fill="#00B0F0" fill-rule="evenodd"/><path d="M805.376 406.879C805.677 417.186 805.436 427.493 804.595 437.799 803.814 447.202 801.591 458.051 793.178 462.33 789.092 464.38 784.345 464.44 779.778 464.44 754.42 464.44 729.062 464.5 703.704 464.5 696.854 464.5 689.282 464.199 684.355 459.377 680.93 456.002 679.548 451.059 678.586 446.298 676.002 433.761 675.041 420.923 675.702 408.085 676.363 396.271 679.668 382.77 690.244 377.647 694.871 375.417 700.099 375.176 705.206 374.995 728.641 374.272 752.137 374.332 775.572 375.236 782.782 375.477 790.474 376.02 796.122 380.48 803.694 386.447 805.076 397.236 805.376 406.879M684.716 386.567C681.471 390.545 680.75 395.97 680.329 401.093 679.187 415.498 679.668 430.024 681.771 444.369 682.432 448.769 683.394 453.47 686.638 456.604 690.604 460.462 696.733 460.703 702.322 460.763 727.139 460.763 751.956 460.823 776.773 460.884 783.503 460.884 791.015 460.643 795.762 455.881 800.088 451.542 800.749 444.851 801.05 438.703 801.711 425.745 801.651 412.726 800.93 399.767 800.689 395.247 800.269 390.425 797.625 386.748 793.539 381.083 785.667 379.937 778.696 379.455 753.999 377.647 729.182 377.647 704.485 379.395 697.274 379.877 689.282 380.962 684.716 386.567" stroke="#00B0F0" stroke-linecap="round" stroke-linejoin="round" stroke-miterlimit="10" fill="#00B0F0" fill-rule="evenodd"/></g></svg>
